!!!COM: Anonim
!!!CDT: [?]
!!!OTL@@LAT: In principio erat verbum
!!!TXO: Latin
!!!ODT: 
!!!GTL: Hymnbook A
!!!ARL: Opactwo św. Wojciecha, Staniątki 
!!!voices:	1
**kern
*staff1
*I"[Canto]
*oclefC1
*clefG2
*k[]
*met(c)
*M2/1
=-
1.dd
2dd
1dd
1dd
2.g
4a
1b
1f
1g
0a
=-
2g
1cc
4b
4a
2.dd
4c
4b
4a
1g
4f
4e
1f
0g
=-
1g
1b
1b
4b
4a
4g
4f
2e
2d
1e
0f
0g
0f
=-
!LO:TX:Y=0:t=p. 36r
0g
1g
1g
2.dd
4c
4b
4a
2cc
1.b
4a
4g
0f
=-
0f
1f
1f
2f
2f
2f
2f
1.f
2g
1a
0g
1f
0g;
=-
1g
2f
2f
1g
0g
1f
1f
1g
0f
=-
1d
1d
1d
1.dd
2cc
2b
2a
1g
1d
1f
1.g
4f
4e
1f
0g
==
*-
!!title: @{OTL}, @{GTL}: @{pag}, ed. @{ENC}
!!!pag: pp. 35v-36r
!!!GTL: Hymnbook A
!!!EFL: 
!!!YEM: Creative Commons CC/BY/NC/SA 4.0
!!!ENC: Marcin Konik
!!!END: 2015-03-09
!!!EED: Marcin Konik
!!!EEV: 
!!!ONB: Encoded in vim by Marcin Konik
!!!CharacterEncoding: utf-8
!!!RDF**kern: l=long note in original notation
!!!RDF**kern: i=editorial accidental
!!muse2ps: z14jc180F
